X: 1452
T: Miss Wallace
M:C|
L:1/8
N:"collected by Mahony"
B:O'Neill's 1452
Z:"Transcribed by Bob Safranek, rjs@gsp.org"
K:G
"   Sign"D2 | GBAF    G2 (AF) | D2 ((3FED)   ADFD  | DGGF     GABc | dcde fdcA|
              GBAF    GBAF    | D2 ((3FED)   ADGF  | DG{A}GF  GABc | dfeg fdcA||
dg{a}gf gbag | fd (3.d.d.d (fd)cA | dg{a}gf   g2 (fg )| agbg ag{a}gf      |
dg{a}gf gbag | fgef         defg  | ((3agf) (ge) fdec | dfeg fdc"   Sign"A|]


